X: 71
T: Polonäs ur Andreas Dahlgrens notbok nr 71
B: http://www.smus.se/earkiv/fmk/browselarge.php?lang=sw&katalogid=Ma+7&bildnr=00027
B: Andreas Dahlgrens notbok
B: Jämför SMUS - katalog Hs11 bild 69
O: Fågelvik, Tryserum, Småland
S: efter Andreas Dahlgren
R: Slängpolska
Z: Nils L
M: 3/4
L: 1/16
K: F
f4 f2a2 g2f2 | e2d2 c2d2 e2c2 | f4 f2a2 g2f2 | f2ef g8 ::
c4 d4 c4 | B2cB A2G2 A2F2 | c4 d4 c4 | BcBA G4 f4 | e2g2 c2f2 e2g2 | f4 F8 :|

